X: 291
T:Antrim Rose, The
M:C|
L:1/8
C:Paddy O'Brien
R:reel
D:Solas: Solas
Z:Devin McCabe
K:D
a|:f~d3 edBd|AddA BdAg|fAdf edBA|Bdgf e/2f/2e de|
!fddf edBd|AddA BdAg|faab afeg|1fedB ABde:|2fedB ABdf|
!:e3d edBd|e/2e/2e df efgf|eafd edBd|Adde dABd|
!e3d edBd|e/2e/2e df efgf|eaab afeg|1fedB ABdf:|2fedB ABde||
